X:0274
T:Mount your Baggage.
N:(RR) Looks to me as though this would be better written in 3/2
M:C|
L:1/8
Q:1/2=120
I: :: ::
Z:Jack Campin * www.campin.me.uk * 2009
K:D
F2|D2F2 A4|D2A2 BAGF|G2 E4  F2 |D2F2 A4|F2d2  c3 B|A2 F2F2:|
de|fdec d4|D2A2 BAGF|G2 E4 (de)|fdec d4|F2d2 Tc3 B|A2 F4
de|fdec d4|D2A2 BAGF|G2 E4  F2 |D2F2 A4|F2d2  edcB|A2 F4  :|

